X: 10
M:4/4
L:1/8
K:F
"Adagio con expressione"(3DEF|G2 A>G G2 (6F/2G/2F/2E/2F/2A/2|G2 (3FDC D2 (3D^CD|
d>=e (3f/2g/2f/2e d>c A>G|G2 A>G F2 G>A|B2 (3AGA G2 (3FDC|
g/2a/2g/2f/2 g/2a/2g/2f/2 d>c A>G|G2 A>G F2 d>c|

